client/src/assets/svg/icons/type-dragon.svg

<?xml version="1.0" encoding="UTF-8" standalone="no"?>
<!-- Created with Inkscape (http://www.inkscape.org/) -->

<svg
   width="25mm"
   height="25mm"
   viewBox="0 0 25 25"
   version="1.1"
   id="svg1120"
   inkscape:version="1.2.2 (732a01da63, 2022-12-09)"
   sodipodi:docname="type-dragon.svg"
   xmlns:inkscape="http://www.inkscape.org/namespaces/inkscape"
   xmlns:sodipodi="http://sodipodi.sourceforge.net/DTD/sodipodi-0.dtd"
   xmlns="http://www.w3.org/2000/svg"
   xmlns:svg="http://www.w3.org/2000/svg">
  <sodipodi:namedview
     id="namedview1122"
     pagecolor="#505050"
     bordercolor="#eeeeee"
     borderopacity="1"
     inkscape:showpageshadow="0"
     inkscape:pageopacity="0"
     inkscape:pagecheckerboard="0"
     inkscape:deskcolor="#505050"
     inkscape:document-units="mm"
     showgrid="false"
     inkscape:zoom="4.4195761"
     inkscape:cx="81.116377"
     inkscape:cy="32.129778"
     inkscape:window-width="1920"
     inkscape:window-height="1057"
     inkscape:window-x="-8"
     inkscape:window-y="-8"
     inkscape:window-maximized="1"
     inkscape:current-layer="layer1" />
  <defs
     id="defs1117" />
  <g
     inkscape:label="Capa 1"
     inkscape:groupmode="layer"
     id="layer1">
    <path
       style="fill:#a1e7ed;fill-opacity:1;stroke:none;stroke-width:0.316352;stroke-opacity:1"
       d="M 10.795185,24.100112 C 6.0994732,23.136518 2.0970947,18.85366 0.97935673,13.596401 0.54376351,11.547639 0.81669501,9.0044381 1.6521311,7.3274848 2.0178035,6.5934686 3.1949991,5.2630271 3.8265806,4.8699555 L 4.1136759,4.6912905 3.7685296,4.3522394 C 3.5787197,4.1657622 3.2775581,3.9090514 3.0993259,3.7817721 L 2.7752684,3.5503549 3.5974281,3.2304946 C 5.9221824,2.3260314 7.9487724,2.238085 9.6910695,2.9660581 L 10.14087,3.1540102 9.2657339,3.6527464 C 7.5873632,4.609199 6.3955602,5.73952 5.8501625,6.8921437 5.7368846,7.131581 5.6146692,7.3274286 5.5786051,7.3273582 5.5425735,7.327289 5.3369227,6.9354812 5.121631,6.456675 4.9063393,5.9778708 4.6846744,5.5861194 4.6289823,5.5861194 c -0.1700304,0 -0.806481,0.9409806 -1.2170468,1.7994121 -0.8619567,1.8023033 -1.0395721,3.8651665 -0.4757366,5.5255105 0.9657019,2.843827 3.5578261,5.116333 7.2896421,6.390821 0.945155,0.322792 1.255449,0.373965 2.310721,0.381088 1.037473,0.007 1.305167,-0.03151 1.797968,-0.258647 0.732589,-0.337668 1.078893,-0.656515 1.34926,-1.242307 0.272315,-0.590009 0.272087,-1.152223 0,-1.741366 C 15.408857,15.846785 15.034777,15.509442 13.814246,14.754648 11.870983,13.552912 10.181024,12.064905 9.3078682,10.786789 7.4900994,8.1259772 8.2657317,5.280807 11.202191,3.8379198 12.463655,3.2180783 13.400867,2.9976837 14.829948,2.9847989 16.223453,2.9722365 16.285745,2.8986909 15.522275,2.1671427 14.939958,1.6091967 14.09315,1.295174 13.133399,1.2812818 l -0.654185,-0.00941 0.406325,-0.1769835 c 1.712606,-0.74597816 3.825802,-0.3132339 5.350253,1.0956289 0.362675,0.3352132 0.689535,0.6094778 0.726303,0.6094778 0.03679,0 0.08202,-0.4309881 0.100629,-0.9577511 l 0.03376,-0.95775003 0.48567,0.72724713 c 0.60729,0.9093713 0.969543,1.8556074 1.053487,2.7517909 0.04696,0.5020386 0.13178,0.7516642 0.307697,0.9063979 0.46009,0.4046893 1.878968,1.3037997 2.579973,1.6348796 l 0.702638,0.3318556 -0.510307,1.4640723 c -0.280668,0.8052389 -0.520587,1.4703597 -0.53316,1.4780477 -0.05345,0.03273 -6.830894,-1.9005678 -6.898034,-1.9677132 -0.04068,-0.040684 -0.09727,-0.5179877 -0.125786,-1.0606674 -0.04902,-0.9326209 -0.06752,-0.9906242 -0.337713,-1.0584513 -0.486643,-0.1221408 -1.520221,0.044969 -2.026049,0.3275708 -0.733119,0.4095866 -0.96805,0.7998167 -0.963494,1.6002827 0.0032,0.5806124 0.06373,0.7647005 0.434067,1.3224604 0.726313,1.093883 2.074308,2.021938 4.310195,2.967416 1.668416,0.705516 2.28526,1.062008 3.009052,1.739033 0.704327,0.658809 1.062804,1.264399 1.302647,2.200567 0.646448,2.523309 -1.676272,5.776846 -5.159211,7.226799 -1.773935,0.738487 -4.154339,0.988916 -5.93217,0.624091 z M 19.711639,6.2419827 C 19.977949,6.0941967 19.975947,6.0901056 19.322011,5.4413609 18.614644,4.7396011 17.16746,3.8963473 16.867802,4.0113325 c -0.145641,0.055898 -0.167953,0.1791865 -0.109588,0.6053737 0.155315,1.1331775 0.891821,1.7709666 2.047214,1.7728049 0.351173,5.659e-4 0.758936,-0.06582 0.906168,-0.1475284 z"
       id="path52726-8-6" />
  </g>
</svg>

<!-- Created with Inkscape (http://www.inkscape.org/) -->
<svg width="25mm" height="25mm" version="1.1" viewBox="0 0 25 25" xmlns="http://www.w3.org/2000/svg">
 <path d="m10.795 24.1c-4.6957-0.96359-8.6981-5.2465-9.8158-10.504-0.43559-2.0488-0.16266-4.592 0.67277-6.2689 0.36567-0.73402 1.5429-2.0645 2.1744-2.4575l0.2871-0.17866-0.34515-0.33905c-0.18981-0.18648-0.49097-0.44319-0.6692-0.57047l-0.32406-0.23142 0.82216-0.31986c2.3248-0.90446 4.3513-0.99241 6.0936-0.26444l0.4498 0.18795-0.87514 0.49874c-1.6784 0.95645-2.8702 2.0868-3.4156 3.2394-0.11328 0.23944-0.23549 0.43528-0.27156 0.43521-0.036032-6.92e-5 -0.24168-0.39188-0.45697-0.87068-0.21529-0.4788-0.43696-0.87056-0.49265-0.87056-0.17003 0-0.80648 0.94098-1.217 1.7994-0.86196 1.8023-1.0396 3.8652-0.47574 5.5255 0.9657 2.8438 3.5578 5.1163 7.2896 6.3908 0.94516 0.32279 1.2554 0.37396 2.3107 0.38109 1.0375 7e-3 1.3052-0.03151 1.798-0.25865 0.73259-0.33767 1.0789-0.65652 1.3493-1.2423 0.27232-0.59001 0.27209-1.1522 0-1.7414-0.27493-0.59385-0.64901-0.93119-1.8695-1.686-1.9433-1.2017-3.6332-2.6897-4.5064-3.9679-1.8178-2.6608-1.0421-5.506 1.8943-6.9489 1.2615-0.61984 2.1987-0.84024 3.6278-0.85312 1.3935-0.012562 1.4558-0.086108 0.69233-0.81766-0.58232-0.55795-1.4291-0.87197-2.3889-0.88586l-0.65418-0.00941 0.40632-0.17698c1.7126-0.74598 3.8258-0.31323 5.3503 1.0956 0.36268 0.33521 0.68954 0.60948 0.7263 0.60948 0.03679 0 0.08202-0.43099 0.10063-0.95775l0.03376-0.95775 0.48567 0.72725c0.60729 0.90937 0.96954 1.8556 1.0535 2.7518 0.04696 0.50204 0.13178 0.75166 0.3077 0.9064 0.46009 0.40469 1.879 1.3038 2.58 1.6349l0.70264 0.33186-0.51031 1.4641c-0.28067 0.80524-0.52059 1.4704-0.53316 1.478-0.05345 0.03273-6.8309-1.9006-6.898-1.9677-0.04068-0.040684-0.09727-0.51799-0.12579-1.0607-0.04902-0.93262-0.06752-0.99062-0.33771-1.0585-0.48664-0.12214-1.5202 0.044969-2.026 0.32757-0.73312 0.40959-0.96805 0.79982-0.96349 1.6003 0.0032 0.58061 0.06373 0.7647 0.43407 1.3225 0.72631 1.0939 2.0743 2.0219 4.3102 2.9674 1.6684 0.70552 2.2853 1.062 3.0091 1.739 0.70433 0.65881 1.0628 1.2644 1.3026 2.2006 0.64645 2.5233-1.6763 5.7768-5.1592 7.2268-1.7739 0.73849-4.1543 0.98892-5.9322 0.62409zm8.9165-17.858c0.26631-0.14779 0.26431-0.15188-0.38963-0.80062-0.70737-0.70176-2.1546-1.545-2.4542-1.43-0.14564 0.055898-0.16795 0.17919-0.10959 0.60537 0.15532 1.1332 0.89182 1.771 2.0472 1.7728 0.35117 5.659e-4 0.75894-0.06582 0.90617-0.14753z" fill="#a1e7ed"/>
</svg>
